X:1
T:Tribute to Coleman
M:4/4
L:1/8
C:Ed Reavy
R:Reel
Z:Kathy Barwick & Ed Wosik
K:Am
|:"Am"G,EAe {e}dcAG| EG ~G2 "G"AGEG| "Am"ABcd eaab|\
c'abg "Em"ea{b}ae| "Am"{b}c'3 b {b}aged|*
"G"(3edc BA GE ~E2| GAce "Dsus"~d3 d|1 dedB cA A2:|2 dedB BAAB|]
"C"~c2 ge abag| "D"^fd d2 "G"BG G2| ~A2 aA gedB|\
GBdB cAAB| "C"ccgc ccgc|*
ccgc BAGB| "D"ABcd ec'ba| "G"gedB "Em"cAAB|\
~c2 ge abag| "D"^fadf "G"BdGB| A2 aA gedB|\
GBdB cAAB| "C"ccgc cgcc| gccg BAGB| "D"ABcd ec'ba|\
"G"gedB "Em"cA A2]|**
